X:1
T:Taxi Chase Theme for Bb Instruments
T:Sherlock Theme for Bb Instruments
C:David Arnold, Michael Price
Z:All Rights Reserved
L:1/16
Q:1/4=120
M:4/4
K:F
V:1 treble nm="MusicXML Part"
%%MIDI program 0
%%MIDI control 7 102
%%MIDI control 10 64
V:1
 DEFG ^GABA ((G8 | ^G8)) z4 z4 | defg ^gaba (c'8 | c'8) z8 | D2A2z2A2 ^GA B4 A2 | G2 d12 z2 | %6
 G2d2z2d2 ^cd e4 d2 | f12 z4 | a2d2z2d2 e2f2 efed | g2 d12 z2 | def2 fge2 efd2 de^c2 | BA d12 z2 | %12
 a2d2z2d2 e2f2 efed | g2 d12 z2 | def2 fge2 efd2 de^c2 | BA d12 z2 :| %16

